X:36
T: SCHOENSTER SCHATZ AUF ERDEN
N: E0649
O: Europa, Mitteleuropa, Deutschland, Hessen, Odenwald; Bergisches Land
R: Liebes - Lied
M: 3/8
L: 1/8
K: F
 | FAB | c2f | cAz |
ccc | B2c | A2z |
cAF | G2c | AFz |
AAA | GFG | F2z

@@@ Tune index: 4349
